swiss/communes/0987.svg

<?xml version="1.0" encoding="UTF-8" standalone="no"?>
<svg
   xmlns:dc="http://purl.org/dc/elements/1.1/"
   xmlns:cc="http://web.resource.org/cc/"
   xmlns:rdf="http://www.w3.org/1999/02/22-rdf-syntax-ns#"
   xmlns:svg="http://www.w3.org/2000/svg"
   xmlns="http://www.w3.org/2000/svg"
   xmlns:xlink="http://www.w3.org/1999/xlink"
   xmlns:sodipodi="http://sodipodi.sourceforge.net/DTD/sodipodi-0.dtd"
   xmlns:inkscape="http://www.inkscape.org/namespaces/inkscape"
   height="763"
   width="603"
   version="1.0"
   id="svg20"
   sodipodi:version="0.32"
   inkscape:version="0.44.1"
   sodipodi:docname="Rumisberg-coat of arms.svg"
   sodipodi:docbase="F:\Mis Documentos\Mis imágenes\Encyclopédie\Escudos de Suiza">
  <metadata
     id="metadata31">
    <rdf:RDF>
      <cc:Work
         rdf:about="">
        <dc:format>image/svg+xml</dc:format>
        <dc:type
           rdf:resource="http://purl.org/dc/dcmitype/StillImage" />
        <dc:date>07-AUG-2006</dc:date>
        <dc:creator>
          <cc:Agent>
            <dc:title>Jérôme BLUM (wagner51)</dc:title>
          </cc:Agent>
        </dc:creator>
        <cc:license
           rdf:resource="http://creativecommons.org/licenses/GPL/2.0/" />
        <dc:coverage />
        <dc:description>Gabarit pour le Projet:Blasons de WIkipédia</dc:description>
        <dc:subject>
          <rdf:Bag>
            <rdf:li>blason suisse modèle gabarit projet blasons</rdf:li>
          </rdf:Bag>
        </dc:subject>
        <dc:language>fr</dc:language>
        <dc:title>Gabrit d'un blason suisse</dc:title>
      </cc:Work>
      <cc:License
         rdf:about="http://creativecommons.org/licenses/GPL/2.0/">
        <cc:permits
           rdf:resource="http://web.resource.org/cc/Reproduction" />
        <cc:permits
           rdf:resource="http://web.resource.org/cc/Distribution" />
        <cc:requires
           rdf:resource="http://web.resource.org/cc/Notice" />
        <cc:permits
           rdf:resource="http://web.resource.org/cc/DerivativeWorks" />
        <cc:requires
           rdf:resource="http://web.resource.org/cc/ShareAlike" />
        <cc:requires
           rdf:resource="http://web.resource.org/cc/SourceCode" />
      </cc:License>
    </rdf:RDF>
  </metadata>
  <defs
     id="defs29">
    <linearGradient
       id="linearGradient2893">
      <stop
         style="stop-color:#ffffff;stop-opacity:0.3137255;"
         offset="0"
         id="stop2895" />
      <stop
         id="stop2897"
         offset="0.19"
         style="stop-color:#ffffff;stop-opacity:0.25098041;" />
      <stop
         style="stop-color:#6b6b6b;stop-opacity:0.1254902;"
         offset="0.60000002"
         id="stop2901" />
      <stop
         style="stop-color:#000000;stop-opacity:0.1254902;"
         offset="1"
         id="stop2899" />
    </linearGradient>
    <linearGradient
       id="linearGradient2955">
      <stop
         style="stop-color:white;stop-opacity:0;"
         offset="0"
         id="stop2965" />
      <stop
         style="stop-color:black;stop-opacity:0.64583331;"
         offset="1"
         id="stop2959" />
    </linearGradient>
    <radialGradient
       inkscape:collect="always"
       xlink:href="#linearGradient2893"
       id="radialGradient3236"
       gradientUnits="userSpaceOnUse"
       gradientTransform="matrix(1.215027,1.531577e-24,1.464684e-23,1.266667,-839.1924,-490.4894)"
       cx="858.04236"
       cy="579.93323"
       fx="858.04236"
       fy="579.93323"
       r="300" />
  </defs>
  <sodipodi:namedview
     inkscape:window-height="682"
     inkscape:window-width="1024"
     inkscape:pageshadow="2"
     inkscape:pageopacity="0.0"
     guidetolerance="10.0"
     gridtolerance="10.0"
     objecttolerance="10.0"
     borderopacity="1.0"
     bordercolor="#666666"
     pagecolor="#ffffff"
     id="base"
     inkscape:zoom="0.5115097"
     inkscape:cx="214.95652"
     inkscape:cy="435.58258"
     inkscape:window-x="-4"
     inkscape:window-y="-4"
     inkscape:current-layer="layer2"
     showgrid="true"
     showguides="true"
     inkscape:guide-bbox="true" />
  <desc
     id="desc22">Coat of Arms of Canton of Freiburg (Fribourg)</desc>
  <g
     inkscape:groupmode="layer"
     id="layer1"
     inkscape:label="Fond écu"
     sodipodi:insensitive="true">
    <path
       id="path1899"
       d="M 1.5,1.49998 L 1.5,460.3679 C 1.5,626.6785 135.81456,761.5 301.49999,761.5 C 467.18543,761.5 601.5,626.6785 601.5,460.3679 L 601.5,1.49998 L 1.5,1.49998 z "
       style="fill:#2b5df2;fill-opacity:1" />
  </g>
  <g
     inkscape:groupmode="layer"
     id="layer2"
     inkscape:label="Meubles"
     sodipodi:insensitive="true">
    <path
       style="fill:white;fill-opacity:1;fill-rule:evenodd;stroke:black;stroke-width:3.00431156;stroke-linecap:butt;stroke-linejoin:miter;stroke-miterlimit:4;stroke-dasharray:none;stroke-opacity:1"
       d="M 1.9348481,3.3399584 L 1.9348481,469.14334 C 5.716149,512.95462 7.8885722,544.56724 30.914264,589.91684 L 119.23634,382.36985 L 211.55846,589.91684 L 299.88053,382.36985 L 392.20263,589.91684 L 480.52471,382.36985 L 572.84678,589.91684 C 590.93605,550.7783 599.23847,509.06765 601.93054,469.14334 L 601.93054,3.3399584 L 1.9348481,3.3399584 L 1.9348481,3.3399584 L 1.9348481,3.3399584 z "
       id="path20717"
       sodipodi:nodetypes="cccccccccccccc" />
    <g
       transform="matrix(1.532218,1.996989e-2,-1.996989e-2,1.532218,-132.7153,8.015944)"
       id="g25202">
      <path
         sodipodi:type="arc"
         style="fill:none;fill-opacity:1;stroke:#333;stroke-width:1;stroke-linecap:round;stroke-linejoin:round;stroke-miterlimit:4;stroke-dasharray:none;stroke-opacity:1"
         id="path25204"
         sodipodi:cx="480"
         sodipodi:cy="390"
         sodipodi:rx="50"
         sodipodi:ry="50"
         d="M 530 390 A 50 50 0 1 1  430,390 A 50 50 0 1 1  530 390 z"
         inkscape:r_cx="true"
         inkscape:r_cy="true"
         transform="matrix(0.27933,0,0,0.27933,150.9218,5.105689)" />
      <path
         sodipodi:type="arc"
         style="fill:none;fill-opacity:1;stroke:#333;stroke-width:1;stroke-linecap:round;stroke-linejoin:round;stroke-miterlimit:4;stroke-dasharray:none;stroke-opacity:1"
         id="path25206"
         sodipodi:cx="480"
         sodipodi:cy="390"
         sodipodi:rx="295"
         sodipodi:ry="295"
         d="M 775 390 A 295 295 0 1 1  185,390 A 295 295 0 1 1  775 390 z"
         inkscape:r_cx="true"
         inkscape:r_cy="true"
         transform="matrix(0.27933,0,0,0.27933,150.9218,5.105689)" />
      <path
         style="fill:#5ab532;fill-opacity:1;stroke:black;stroke-width:3;stroke-linecap:round;stroke-linejoin:miter;marker-start:none;stroke-miterlimit:4;stroke-dasharray:none;stroke-opacity:1"
         d="M 358.54129,7.5748428 C 350.34968,63.078893 362.10137,111.93538 406.50873,149.90698 C 341.1451,153.44912 306.00223,188.58472 285.96144,239.50838 C 262.11485,185.78657 223.45761,153.64532 163.49167,152.55295 C 221.77683,109.58663 223.94708,60.385515 208.34849,9.210145 C 255.68283,36.41842 305.02811,43.182751 358.54129,7.5748428 z "
         id="path25208"
         sodipodi:nodetypes="cccccc"
         inkscape:r_cx="true"
         inkscape:r_cy="true" />
      <path
         inkscape:r_cy="true"
         inkscape:r_cx="true"
         style="fill:#e20909;fill-opacity:1;stroke:black;stroke-width:3;stroke-linecap:round;stroke-linejoin:miter;stroke-miterlimit:4;stroke-dasharray:none;stroke-opacity:1"
         d="M 330.62643,53.54714 C 321.76495,66.222588 287.15429,115.49832 285.98779,113.98708 C 282.9119,110.00217 252.0423,65.340257 242.92926,50.781912 C 225.75953,-7.4341717 346.84216,-6.1207725 330.62643,53.54714 z "
         id="path25210"
         sodipodi:nodetypes="cscc" />
      <path
         sodipodi:nodetypes="cscc"
         id="path25212"
         d="M 350.89014,134.21848 C 336.02242,129.68498 283.55453,115.74043 284.63134,114.16402 C 287.47072,110.00727 320.40751,66.847228 331.43724,53.681439 C 383.79724,18.39472 412.22109,134.20069 350.89014,134.21848 z "
         style="fill:#e20909;fill-opacity:1;stroke:black;stroke-width:3;stroke-linecap:round;stroke-linejoin:miter;stroke-miterlimit:4;stroke-dasharray:none;stroke-opacity:1"
         inkscape:r_cx="true"
         inkscape:r_cy="true" />
      <path
         inkscape:r_cy="true"
         inkscape:r_cx="true"
         style="fill:#e20909;fill-opacity:1;stroke:black;stroke-width:3;stroke-linecap:round;stroke-linejoin:miter;stroke-miterlimit:4;stroke-dasharray:none;stroke-opacity:1"
         d="M 286.46062,184.78579 C 286.17927,169.32248 285.01437,111.13473 286.84638,111.6717 C 291.67709,113.0876 338.95246,129.49505 354.88225,135.9165 C 404.80269,173.36124 308.46149,245.36852 286.46062,184.78579 z "
         id="path25214"
         sodipodi:nodetypes="cscc" />
      <path
         sodipodi:nodetypes="cscc"
         id="path25216"
         d="M 213.13733,138.94414 C 227.75688,133.89813 286.2591,111.58796 286.31453,113.49624 C 286.4607,118.52807 287.55329,167.27464 286.3687,184.40911 C 268.15507,245.03258 164.7401,178.15029 213.13733,138.94414 z "
         style="fill:#e20909;fill-opacity:1;stroke:black;stroke-width:3;stroke-linecap:round;stroke-linejoin:miter;stroke-miterlimit:4;stroke-dasharray:none;stroke-opacity:1"
         inkscape:r_cx="true"
         inkscape:r_cy="true" />
      <path
         inkscape:r_cy="true"
         inkscape:r_cx="true"
         style="fill:#e20909;fill-opacity:1;stroke:black;stroke-width:3;stroke-linecap:round;stroke-linejoin:miter;stroke-miterlimit:4;stroke-dasharray:none;stroke-opacity:1"
         d="M 241.2036,51.888847 C 250.52033,64.233571 287.44656,113.76836 285.64881,114.41077 C 280.90842,116.1047 232.84341,133.24228 216.18149,137.41051 C 155.18732,137.9019 187.65031,18.557568 241.2036,51.888847 z "
         id="path25218"
         sodipodi:nodetypes="cscc" />
      <path
         inkscape:r_cy="true"
         inkscape:r_cx="true"
         style="fill:#e20909;fill-opacity:1;stroke:black;stroke-width:2.79329991;stroke-linecap:round;stroke-linejoin:round;stroke-miterlimit:4;stroke-dasharray:none;stroke-opacity:1"
         d="M 206.7878,86.29587 C 206.7878,87.41319 279.04386,112.97182 282.39582,110.45785 C 285.46845,107.94388 285.83819,31.26786 285.0002,31.26786 C 284.16221,31.26786 286.96375,106.1529 289.47772,108.9462 C 291.99169,112.01883 363.49193,89.08917 363.2126,88.25118 C 362.93327,87.41319 292.32035,110.88515 290.9237,114.23711 C 289.80638,117.58907 333.04496,179.59209 333.88295,179.03343 C 334.72094,178.47477 291.77804,118.75572 287.58809,119.03505 C 284.09647,119.03505 235.27946,178.19544 235.83812,179.03343 C 236.67611,179.59209 282.78191,120.0948 281.38526,116.74284 C 280.26794,113.39088 207.90512,84.89922 207.34646,86.29587 L 206.7878,86.29587 z "
         id="path25220"
         sodipodi:nodetypes="czzzzzzzzzzc" />
      <path
         sodipodi:type="arc"
         style="fill:#fcef3c;fill-opacity:1;stroke:black;stroke-width:15.91108894;stroke-linecap:butt;stroke-miterlimit:4;stroke-dasharray:none;stroke-opacity:1"
         id="path25222"
         sodipodi:cx="480"
         sodipodi:cy="390"
         sodipodi:rx="137"
         sodipodi:ry="137"
         d="M 617 390 A 137 137 0 1 1  343,390 A 137 137 0 1 1  617 390 z"
         inkscape:r_cx="true"
         inkscape:r_cy="true"
         transform="matrix(0.251397,0,0,0.251397,164.3296,15.99956)" />
      <path
         sodipodi:nodetypes="cszsc"
         inkscape:r_cy="true"
         inkscape:r_cx="true"
         id="path25224"
         d="M 252.65768,37.643523 C 254.26641,31.611195 259.66469,24.77219 265.83616,25.146397 C 271.63151,25.497797 277.34748,30.245266 285.09053,30.358721 C 292.83358,30.472176 299.23001,23.489511 310.43219,27.156439 C 317.08226,29.333278 318.03842,33.630632 319.96859,39.235684"
         style="fill:none;fill-opacity:0.75;fill-rule:evenodd;stroke:black;stroke-width:2.23463988;stroke-linecap:round;stroke-linejoin:miter;stroke-miterlimit:4;stroke-dasharray:none;stroke-opacity:1" />
      <path
         style="fill:none;fill-opacity:0.75;fill-rule:evenodd;stroke:black;stroke-width:2.23464108;stroke-linecap:round;stroke-linejoin:miter;stroke-miterlimit:4;stroke-dasharray:none;stroke-opacity:1"
         d="M 348.96367,57.27138 C 355.49911,58.26097 359.28999,63.099008 361.97307,70.461038 C 363.96114,75.916048 361.29538,81.035843 363.58021,88.434985 C 365.86505,95.834126 367.55624,94.966156 370.83903,103.07594 C 372.86414,108.07877 371.6348,111.7037 368.0292,118.93962"
         id="path25226"
         inkscape:r_cx="true"
         inkscape:r_cy="true"
         sodipodi:nodetypes="cszsc" />
      <path
         style="fill:none;fill-opacity:0.75;fill-rule:evenodd;stroke:black;stroke-width:2.23463988;stroke-linecap:round;stroke-linejoin:miter;stroke-miterlimit:4;stroke-dasharray:none;stroke-opacity:1"
         d="M 357.96514,152.82871 C 359.00909,157.64196 359.11197,165.86673 351.77016,171.8333 C 345.9636,176.55219 340.43753,174.91005 334.10658,179.36951 C 327.77563,183.82898 325.96489,190.17856 319.01594,193.53428 C 312.31454,196.77045 307.18584,194.96916 302.32973,191.5691"
         id="path25228"
         inkscape:r_cx="true"
         inkscape:r_cy="true"
         sodipodi:nodetypes="cszsc" />
      <path
         style="fill:none;fill-opacity:0.75;fill-rule:evenodd;stroke:black;stroke-width:2.23463988;stroke-linecap:round;stroke-linejoin:miter;stroke-miterlimit:4;stroke-dasharray:none;stroke-opacity:1"
         d="M 267.79532,193.92657 C 262.13415,196.29329 256.69029,197.27194 251.91742,193.34171 C 247.43544,189.651 242.29305,184.24353 236.09548,179.60049 C 229.8979,174.95745 225.45124,176.67977 218.26013,169.37359 C 214.47417,165.52704 214.40191,158.26932 216.13494,152.60021"
         id="path25230"
         inkscape:r_cx="true"
         inkscape:r_cy="true"
         sodipodi:nodetypes="cszsc" />
      <path
         style="fill:none;fill-opacity:0.75;fill-rule:evenodd;stroke:black;stroke-width:2.23463988;stroke-linecap:round;stroke-linejoin:miter;stroke-miterlimit:4;stroke-dasharray:none;stroke-opacity:1"
         d="M 204.07875,121.64556 C 200.07847,116.99283 194.741,113.25293 197.84197,102.75054 C 199.4861,97.182204 204.00479,93.557506 206.50543,86.228487 C 209.00607,78.899466 206.95129,73.457439 211.43197,66.216563 C 215.14851,60.21054 220.41128,58.949927 226.33846,58.846278"
         id="path25232"
         inkscape:r_cx="true"
         inkscape:r_cy="true"
         sodipodi:nodetypes="cszsc" />
    </g>
  </g>
  <g
     inkscape:groupmode="layer"
     id="layer3"
     inkscape:label="Reflet final"
     style="display:inline"
     sodipodi:insensitive="true">
    <path
       style="fill:url(#radialGradient3236);fill-opacity:1"
       d="M 1.5,1.5 L 1.5,460.3679 C 1.5,626.67854 135.81454,761.5 301.49993,761.5 C 467.1854,761.5 601.5,626.67854 601.5,460.3679 L 601.5,1.5 L 1.5,1.5 z "
       id="path2346" />
  </g>
  <g
     inkscape:groupmode="layer"
     id="layer4"
     inkscape:label="Contour final"
     style="display:inline"
     sodipodi:insensitive="true">
    <path
       style="fill:none;fill-opacity:1;stroke:#000000;stroke-width:3;stroke-miterlimit:4;stroke-dasharray:none;stroke-opacity:1"
       d="M 1.5,1.5 L 1.5,460.36794 C 1.5,626.67854 135.81454,761.5 301.49993,761.5 C 467.1854,761.5 601.5,626.67854 601.5,460.36794 L 601.5,1.5 L 1.5,1.5 z "
       id="path3239" />
  </g>
</svg>

<svg xmlns="http://www.w3.org/2000/svg" xmlns:xlink="http://www.w3.org/1999/xlink" height="763" width="603" version="1.0"><defs><radialGradient xlink:href="#a" id="b" gradientUnits="userSpaceOnUse" gradientTransform="matrix(1.21503 0 0 1.26667 -839.192 -490.49)" cx="858.042" cy="579.933" fx="858.042" fy="579.933" r="300"/><linearGradient id="a"><stop style="stop-color:#fff;stop-opacity:.3137255" offset="0"/><stop offset=".19" style="stop-color:#fff;stop-opacity:.25098041"/><stop style="stop-color:#6b6b6b;stop-opacity:.1254902" offset=".6"/><stop style="stop-color:#000;stop-opacity:.1254902" offset="1"/></linearGradient></defs><path d="M1.5 1.5v458.868c0 166.31 134.315 301.132 300 301.132s300-134.822 300-301.132V1.5H1.5z" style="fill:#2b5df2;fill-opacity:1"/><path style="fill:#fff;fill-opacity:1;fill-rule:evenodd;stroke:#000;stroke-width:3.00431156;stroke-linecap:butt;stroke-linejoin:miter;stroke-miterlimit:4;stroke-dasharray:none;stroke-opacity:1" d="M1.935 3.34v465.803c3.781 43.812 5.954 75.424 28.98 120.774l88.321-207.547 92.322 207.547 88.323-207.547 92.322 207.547 88.322-207.547 92.322 207.547c18.09-39.139 26.391-80.85 29.084-120.774V3.34H1.935z"/><path style="fill:none;fill-opacity:1;stroke:#333;stroke-width:1;stroke-linecap:round;stroke-linejoin:round;stroke-miterlimit:4;stroke-dasharray:none;stroke-opacity:1" d="M530 390a50 50 0 1 1-100 0 50 50 0 1 1 100 0z" transform="rotate(.738 -1398.448 7561.553) scale(.42803)"/><path style="fill:none;fill-opacity:1;stroke:#333;stroke-width:1;stroke-linecap:round;stroke-linejoin:round;stroke-miterlimit:4;stroke-dasharray:none;stroke-opacity:1" d="M775 390a295 295 0 1 1-590 0 295 295 0 1 1 590 0z" transform="rotate(.738 -1398.448 7561.553) scale(.42803)"/><path style="fill:#5ab532;fill-opacity:1;stroke:#000;stroke-width:3;stroke-linecap:round;stroke-linejoin:miter;marker-start:none;stroke-miterlimit:4;stroke-dasharray:none;stroke-opacity:1" d="M358.541 7.575c-8.191 55.504 3.56 104.36 47.968 142.332-65.364 3.542-100.507 38.678-120.548 89.601-23.846-53.721-62.503-85.863-122.47-86.955 58.286-42.966 60.456-92.167 44.857-143.343 47.335 27.208 96.68 33.973 150.193-1.635z" transform="rotate(.752 -682.371 -10179.136) scale(1.53235)"/><path style="fill:#e20909;fill-opacity:1;stroke:#000;stroke-width:3;stroke-linecap:round;stroke-linejoin:miter;stroke-miterlimit:4;stroke-dasharray:none;stroke-opacity:1" d="M330.626 53.547c-8.861 12.676-43.472 61.951-44.638 60.44-3.076-3.985-33.946-48.647-43.059-63.205-17.17-58.216 103.913-56.903 87.697 2.765z" transform="rotate(.752 -682.371 -10179.136) scale(1.53235)"/><path d="M350.89 134.218c-14.868-4.533-67.335-18.478-66.259-20.054 2.84-4.157 35.777-47.317 46.806-60.483 52.36-35.286 80.784 80.52 19.453 80.537z" style="fill:#e20909;fill-opacity:1;stroke:#000;stroke-width:3;stroke-linecap:round;stroke-linejoin:miter;stroke-miterlimit:4;stroke-dasharray:none;stroke-opacity:1" transform="rotate(.752 -682.371 -10179.136) scale(1.53235)"/><path style="fill:#e20909;fill-opacity:1;stroke:#000;stroke-width:3;stroke-linecap:round;stroke-linejoin:miter;stroke-miterlimit:4;stroke-dasharray:none;stroke-opacity:1" d="M286.46 184.786c-.28-15.464-1.446-73.651.386-73.114 4.831 1.416 52.106 17.823 68.036 24.245 49.92 37.444-46.42 109.452-68.421 48.869z" transform="rotate(.752 -682.371 -10179.136) scale(1.53235)"/><path d="M213.137 138.944c14.62-5.046 73.122-27.356 73.178-25.448.146 5.032 1.238 53.779.054 70.913-18.214 60.624-121.629-6.259-73.232-45.465z" style="fill:#e20909;fill-opacity:1;stroke:#000;stroke-width:3;stroke-linecap:round;stroke-linejoin:miter;stroke-miterlimit:4;stroke-dasharray:none;stroke-opacity:1" transform="rotate(.752 -682.371 -10179.136) scale(1.53235)"/><path style="fill:#e20909;fill-opacity:1;stroke:#000;stroke-width:3;stroke-linecap:round;stroke-linejoin:miter;stroke-miterlimit:4;stroke-dasharray:none;stroke-opacity:1" d="M241.204 51.889c9.316 12.345 46.243 61.88 44.445 62.522-4.74 1.694-52.806 18.831-69.468 23-60.994.49-28.53-118.853 25.023-85.522z" transform="rotate(.752 -682.371 -10179.136) scale(1.53235)"/><path style="fill:#e20909;fill-opacity:1;stroke:#000;stroke-width:2.79329991;stroke-linecap:round;stroke-linejoin:round;stroke-miterlimit:4;stroke-dasharray:none;stroke-opacity:1" d="M206.788 86.296c0 1.117 72.256 26.676 75.608 24.162 3.072-2.514 3.442-79.19 2.604-79.19-.838 0 1.964 74.885 4.478 77.678 2.514 3.073 74.014-19.857 73.735-20.695-.28-.838-70.893 22.634-72.29 25.986-1.117 3.352 42.122 65.355 42.96 64.796.838-.558-42.105-60.277-46.295-59.998-3.492 0-52.309 59.16-51.75 59.998.838.56 46.944-58.938 45.547-62.29-1.117-3.352-73.48-31.844-74.039-30.447h-.558z" transform="rotate(.752 -682.371 -10179.136) scale(1.53235)"/><path style="fill:#fcef3c;fill-opacity:1;stroke:#000;stroke-width:15.91108894;stroke-linecap:butt;stroke-miterlimit:4;stroke-dasharray:none;stroke-opacity:1" d="M617 390a137 137 0 1 1-274 0 137 137 0 1 1 274 0z" transform="rotate(.772 -2684.364 9131.103) scale(.38523)"/><path d="M252.658 37.644c1.608-6.033 7.007-12.872 13.178-12.498 5.796.352 11.511 5.1 19.255 5.213 7.743.113 14.139-6.87 25.341-3.203 6.65 2.177 7.606 6.475 9.537 12.08" style="fill:none;fill-opacity:.75;fill-rule:evenodd;stroke:#000;stroke-width:2.23463988;stroke-linecap:round;stroke-linejoin:miter;stroke-miterlimit:4;stroke-dasharray:none;stroke-opacity:1" transform="rotate(.752 -682.371 -10179.136) scale(1.53235)"/><path style="fill:none;fill-opacity:.75;fill-rule:evenodd;stroke:#000;stroke-width:2.23464108;stroke-linecap:round;stroke-linejoin:miter;stroke-miterlimit:4;stroke-dasharray:none;stroke-opacity:1" d="M348.964 57.271c6.535.99 10.326 5.828 13.01 13.19 1.987 5.455-.679 10.575 1.606 17.974 2.285 7.4 3.976 6.531 7.259 14.64 2.025 5.004.796 8.629-2.81 15.865" transform="rotate(.752 -682.371 -10179.136) scale(1.53235)"/><path style="fill:none;fill-opacity:.75;fill-rule:evenodd;stroke:#000;stroke-width:2.23463988;stroke-linecap:round;stroke-linejoin:miter;stroke-miterlimit:4;stroke-dasharray:none;stroke-opacity:1" d="M357.965 152.829c1.044 4.813 1.147 13.038-6.195 19.004-5.806 4.72-11.332 3.077-17.663 7.537-6.331 4.459-8.142 10.809-15.091 14.164-6.701 3.236-11.83 1.435-16.686-1.965M267.795 193.927c-5.66 2.366-11.105 3.345-15.878-.585-4.482-3.691-9.624-9.098-15.822-13.742-6.197-4.643-10.644-2.92-17.835-10.226-3.786-3.847-3.858-11.105-2.125-16.774M204.079 121.646c-4-4.653-9.338-8.393-6.237-18.895 1.644-5.569 6.163-9.193 8.663-16.523 2.501-7.329.446-12.77 4.927-20.011 3.717-6.006 8.98-7.267 14.906-7.37" transform="rotate(.752 -682.371 -10179.136) scale(1.53235)"/><g style="display:inline"><path style="fill:url(#b);fill-opacity:1" d="M1.5 1.5v458.868c0 166.31 134.315 301.132 300 301.132s300-134.821 300-301.132V1.5H1.5z"/></g><g style="display:inline"><path style="fill:none;fill-opacity:1;stroke:#000;stroke-width:3;stroke-miterlimit:4;stroke-dasharray:none;stroke-opacity:1" d="M1.5 1.5v458.868c0 166.31 134.315 301.132 300 301.132s300-134.821 300-301.132V1.5H1.5z"/></g></svg>
